X: 10032
M: 3/8
L: 1/16
K: G
def |\
g2g2g2 | a2a2a2 | b2g2g2 | afedef |\
g2g2g2 | a2a2a2 | gfedef | g4 |]
d2cBAG | e2dcBA | c2BAGF | GFGABc |\
d2cBAG | e2dcBA | GFEDEF | G4 |]


